X:1
T:Title
%%score 1 2 3 4
L:1/8
M:2/2
K:G
V:1 treble nm="Choir Aahs"
V:2 treble nm="Choir Aahs"
V:3 bass nm="Choir Aahs"
V:4 bass nm="Choir Aahs"
V:1
 B8 | A2 A2 B2 B2 | c4 A4 | G8 | z8 | z8 | z8 | d4 d2 c2 | B4 A4 | GABc d4 | d4 A4 | B3 A G3 A | %12
 B4 A4 | A8 | z8 | z8 | z8 | z8 | z8 | d4 dedc | B2 A2 G4 | d4 B4 | B8 |] %23
V:2
 G8 | F2 F2 D2 D2 | C4 F4 | D8 | D4 D2 D2 | G3 F G2 E2 | D8 | z8 | G4 F2 E2 | D4 G4 | G4 E4 | %11
 F4 D4 | G4 E4 | F8 | z8 | z8 | z8 | z4 G4 | GAGF E2 F2 | G4 F2 E2 | D4 G4 | F4 G4 | G8 |] %23
V:3
 G,8 | D2 D2 B,2 G,2 | A,4 F,4 | G,8 | z8 | z8 | z8 | z8 | z8 | D4 D2 C2 | B,4 A,4 | %11
 G,3 A, B,3 A, | B,4[K:treble] ^C4 | D8 | z8 | z8 | D4 DEDC | B,2 A,2 G,3 F, | G,3 A, B,3 A, | %19
 B,3[K:treble] C D3 E | D3 C B,4 | A,4 G,4 | G,8 |] %23
V:4
 G,8 | D,2 D,2 G,,2 G,,2 | C,4 D,4 | G,,8 | G,4 B,2 A,2 | G,A,G,F, E,2 C,2 | D,8 | z8 | z8 | z8 | %10
 G,4 F,2 E,2 | D,4 E,2 F,2 | G,4 A,4 | D,8 | z4 G,4 | G,A,G,F, E,2 F,2 | G,4 D,4 | D,4 G,,4 | %18
 G,3 F, G,3 A, | G,4 D,4 | E,2 F,2 G,4 | D,4 G,,4 | G,,8 |] %23

